icons/4_Outdated/Disroot v1.svg

<svg xmlns="http://www.w3.org/2000/svg" width="1024" height="1024" fill="none">
   <g clip-path="url(#a)">
      <path fill="#BA6561" d="M512 1024c282.77 0 512-229.23 512-512S794.77 0 512 0 0 229.23 0 512s229.23 512 512 512Z"/>
      <path fill="#fff" d="M665.93 391.212a4.829 4.829 0 0 1 0 6.16 4.637 4.637 0 0 1-3.72 0l-3.73-5.37-8.92-2.3c-1.48-1.547-1.48-3.6 0-6.16a5.421 5.421 0 0 1 2.598-2.127 5.424 5.424 0 0 1 3.352-.193 28.389 28.389 0 0 1 10.39 10l.03-.01Zm108.51 104.79a12.88 12.88 0 0 1 .75 3.84l-3.72 5.39v-8.46a6.432 6.432 0 0 1 2.97-.77Zm-130.07-114.79 3.7 6.16c-2 3.593-3.984 5.906-5.95 6.94l-2.22 3.07a45.988 45.988 0 0 1-2.22-7.69 2.145 2.145 0 0 1-.83-.23 2.14 2.14 0 0 1-.67-.54l-3 3.07-13.36-3.07c-2-2.58-1.51-5.4 1.47-8.46a8.865 8.865 0 0 1 4.807-2.895 8.868 8.868 0 0 1 5.583.575l12.69 3.07Zm-27.5 16.19-3.72-2.32 3-1.55.73 3.87h-.01Zm-59.48-39.3-4.45 5.39-4.47-5.39-3.72-.77 11.89-2.33.75 3.1Zm231.91 115.55c2 1.546 2.25 5.396.75 11.55l-4.45 13.1-3.72 4.62-.75-9.23a18.001 18.001 0 0 0-.73-5.39 14.403 14.403 0 0 0-.77-4.62l-9.63 4.59a8.937 8.937 0 0 1 .75 3.87 8.478 8.478 0 0 0 1.5 3.09l-10.39.77.73 3.07 2.22 2.32-3.7 8.46c-.5 4.626-1.74 7.203-3.72 7.73l-3-4.64-8.94 2.3c-1.967-2.047-2.95-3.844-2.95-5.39l-2.25-3.07 3.72-4.62c-.98-2.06-1.98-3.09-3-3.09l-3.72 1.55-3.7 9.23c-3.48 0-5.71.516-6.69 1.55l4.45 6.16 15.62 8.44.75 5.41a9.512 9.512 0 0 1 4.47 2.3 22.91 22.91 0 0 1 3 2.32 30.562 30.562 0 0 0-1.5 3.87 8.489 8.489 0 0 1-3 3.07l-6.65 4.63.75 6.16a25.334 25.334 0 0 0-10.39 7.71l-2.25 8.46c-5.447 0-8.91.516-10.39 1.55l.73 11.58-2.22-.77c-2-3.094-3.984-3.867-5.95-2.32l3 10a8.044 8.044 0 0 0-3.72.77l-1.56 1.54 3 5.39c.405 1.517.649 3.072.73 4.64a18.486 18.486 0 0 1-8.92 4.59c-2.467.533-4.45 2.336-5.95 5.41l.75 9.23c-1.48 3.606-2.72 5.92-3.72 6.94-4.947 0-8.66.517-11.14 1.55l-4.47 8.46-3.7-1.52c-2-.514-3.49-.514-4.47 0l-3 6.16c-4.46 0-7.684 1.023-9.67 3.07l-5.95 5.41 1.5-6.94c1.48-4.107.73-6.42-2.25-6.94l-3 2.3-.73 3.87-7.44 4.62-.73 8.46h-14.08l-3 5.41c-1 3.08-3.48 5.393-7.44 6.94-3.96 1.546-10.897 2.313-20.81 2.3-9.907 0-16.1.516-18.58 1.55-2.48 0-4.71 1.29-6.69 3.87a13.337 13.337 0 0 1-5.2 5.39l-11.89 3.84-3.72 6.94-5.2 3.87c-2.48 1.533-6.444 2.3-11.89 2.3l-7.44 3.87-11.14 4.59-8.19-.75a22.157 22.157 0 0 0-10.39-2.32H483.8l-4.47-3.09-8.92 1.55-4.41 6.13-6.69-4.62-5.2-5.39-11.89-.77-4.47-3.87 6.69-8.46 8.92-12.33v-8.46l10.39-11.58v-13.1a24.34 24.34 0 0 1 2.25-10.79l8.17 2.32c2-2.06 3-3.607 3-4.64a41.264 41.264 0 0 1-8.17-10l-7.44-10.78-8.92-11.55-5.95-10.8-6.69-10.78-5.2-13.1-11.2-12.3-40.89-60.08-7.44-13.1-7.42-14.65-5.95-3.84a86.205 86.205 0 0 1-11.17-18.49l-2.22-9.21-6.69-3.07-23 4.62a58.683 58.683 0 0 0-17.82 3.05l-15.61 6.16-18.61 2.3-10.39 3.87c-4.46 1.033-7.924.516-10.39-1.55l-5.22-6.16-8.17 3.09-6.75-2.31c0-5.14-.49-8.227-1.47-9.26l-6.69-9.23a32.532 32.532 0 0 0-6.69-3.87l.73-3.84h7.44a18.006 18.006 0 0 1-.73-5.39v-3.87l7.42 3.09c2.48-1.534 3.97-2.824 4.47-3.87l3-6.14 5.95.77 4.45-13.1-.73-6.94 3.72 2.3 3.7 3.87c2.48-1.034 3.97-2.064 4.47-3.09l6.69-8.46 6.67.77-2.26-5.38-4.45-5.41-6.69-2.3c2.966-4.627 9.41-7.96 19.33-10l23.78-2.3 8.17-5.39 19.33-3.87 29.73-1.55 10.39-2.3a19.003 19.003 0 0 1 11.91-.77l11.89-.77c7.926-2.047 13.623-2.564 17.09-1.55l9.67.77 13.39.77 20.06 3.87 17.84 1.52 12.64-5.39c2.98 0 6.203 2.053 9.67 6.16l7.44 5.39h15.61l5.2 6.16-.73 3.87 4.45 12.33 3-1.55 6.69-7.71 7.42 11.55-8.92-3.07c-3.467 0-5.45 2.563-5.95 7.69l7.44 1.55 3 3.87 4.45-1.55c2.48-1.034 4.96-.517 7.44 1.55 2.966 1.533 4.95 3.33 5.95 5.39l4.45 6.16h9.67a4.693 4.693 0 0 1 .73-3.09 9.402 9.402 0 0 1 1.5-2.3l1.5 7.69h3l2.22-2.3 2.25 3.87 2.22-6.19c6.446 0 10.16-.517 11.14-1.55a5.342 5.342 0 0 0-1.47-3.84l-3-3.87c0-2.56 1.983-3.584 5.95-3.07l10.39 3.09 7.44-.77 4.45 3.87 1.5 3.07c-4.46-1.034-7.44-.777-8.94.77-.967 1.013-1.21 2.81-.73 5.39l5.2 4.59c0 3.606 1.74 7.466 5.22 11.58l3-3.07.73-6.16 3 3.84h12.62c2.48 0 4.463 2.82 5.95 8.46l2.25 7.73 3 2.3 3.72-3.87 11.8 3.85 2.22-3.87 3.72-1.52a13.147 13.147 0 0 0 3.72-3.87v-3.84l-1.5-3.87 10.39 3.09a20.742 20.742 0 0 0 3.72-4.62c-.98-2.58-1.98-3.87-3-3.87l-7.42-1.52v-3.87l2.22-5.39 2.22-4.62c2.48 1.533 3.97 2.823 4.47 3.87l3.72 5.37 5.2-.75 5.2-.77 18.61 16.17 5.2-.77 5.2 6.94 4.47 2.32c-1.5 2.046-1.5 4.35 0 6.91l5.2-2.3h5.2l4.47 7.71 4.45 7.69c3.966 0 6.946.516 8.94 1.55l2.95 13.87 8.19 4.62 6.67 2.32a11.303 11.303 0 0 1-1.47 6.16l1.47 7.71 2.25 4.59-.75 5.41 3-1.55c2-2.58 3.49-4.12 4.47-4.62l3-1.55-.1.02ZM602 359.672c1.48 1.533 1.48 3.836 0 6.91-.5 1.033-1.99 1.806-4.47 2.32-1.48-1.547-1.48-3.86 0-6.94.5-1.027 1.99-1.79 4.47-2.29Zm152.4 143.27c1.48 1.546 1.48 3.6 0 6.16l-3.72 1.55-.73-5.39a4.648 4.648 0 0 1 .73-3.07c1-.514 2.24-.257 3.72.77v-.02Zm-31.22-37.73c.98 1.013 1.47 3.576 1.47 7.69a8.092 8.092 0 0 1-5.95.77c-2.467-1.534-2.957-3.847-1.47-6.94.986-2.574 2.97-3.08 5.95-1.52Zm-210.35-102.47-4.47 8.46 2.22-6.14 2.25-2.32Zm102.56 297.36-3-4.62 3-2.32c2.48.513 3.48 2.31 3 5.39l-3 1.55Zm124.15-114.8c-2.98-2.047-4.964-4.094-5.95-6.14l4.45 3.07 1.5 3.09v-.02Zm-297.36 137.13 3.7-3.84 3.72-2.32-7.42 6.16Zm319.59-199.5-2.22 4.59-.73 2.34-.75-5.41 3.7-1.52Zm-49.06-47 2.29 3.07-3 .77-3-2.32 3.71-1.52Zm6.69 132.47 1.5 2.3-2.25 1.55.75-3.87v.02Zm-274.25 130.97-.75 3.87.73-3.87h.02Zm225.25-301.22 1.45 2.32-3.7-1.55 2.22-.77h.03Zm-121.18 209.53-.75 3.09.73-3.07.02-.02Zm171.71-156.36-.75 3.07.73-3.07h.02Zm-469.04-60.86-.75 3.84.73-3.87.02.03Zm518.11 87.8a6.988 6.988 0 0 0-.75 3.09 4.693 4.693 0 0 1 .73-3.09h.02Zm-220.75-94.74-.75 3.07.73-3.07h.02Zm-10.39-.77-1.5 1.55 1.47-1.55h.03ZM767 476.002a19.795 19.795 0 0 0-2.25-10 16.788 16.788 0 0 0-5.2-6.91l-.73 10 5.2 2.32a5.229 5.229 0 0 1 0 3.84l2.98.75Zm-28.27 16.17-3.7-.77-4.45-6.94 1.47-6.16-6.69 4.64 3.72 4.59.73 2.34-8.89 3.84 5.95.77c.86.934 1.875 1.712 3 2.3.961.388 1.97.647 3 .77l5.95-5.39-.09.01Zm-14.84-13.87-3-2.3-5.22-1.55-2.22-3.87-3 3.09-2.18 5.33 5.95 2.32c2.966 0 5.196.766 6.69 2.3l2.98-5.32Zm-130.07-84-3-1.55-4.45-2.3c-2 0-3 .506-3 1.52l.73 4.64 5.22 3.07 4.5-5.38Zm89.18 164.1 1.5-9.26c0-8.22-2.98-16.954-8.94-26.2a63.677 63.677 0 0 0-19.33-22.33c-6.447-6.174-15.357-11.57-26.73-16.19l-29.73-13.07-11.17-6.94-16.36-6.16-17.09-5.39-27.5-6.16-8.94-1.55c-4.447 0-7.91.516-10.39 1.55-2 .5-2.74 2.296-2.22 5.39l8.9 17.71c4.46 8.22 8.673 13.866 12.64 16.94l6.69 4.62v4.64l7.42 9.23.73 6.16c2 1.546 3.49 2.32 4.47 2.32 2.48 1.533 5.703 5.383 9.67 11.55l8.19 10 12.62 18.49 11.17 20 5.2 15.39-1.47 10 3 4.62-3 4.62a3.001 3.001 0 0 0-.81 3.603c.19.401.467.755.81 1.037l5.2-1.55 8.92-3.87c2.48 0 6.693-1.53 12.64-4.59l16.36-7.73 23-9.23c9.433-4.034 16.13-8.117 20.09-12.25l3-7.71c0-3.594.5-6.164 1.5-7.71l-.04.02Z"/>
   </g>
   <defs>
      <clipPath id="a">
         <path fill="#fff" d="M0 0h1024v1024H0z"/>
      </clipPath>
   </defs>
</svg>

<svg width="1024" height="1024" viewBox="0 0 1024 1024" fill="none" xmlns="http://www.w3.org/2000/svg">
<g clip-path="url(#clip0_3_530)">
<path d="M512 1024C794.77 1024 1024 794.77 1024 512C1024 229.23 794.77 0 512 0C229.23 0 0 229.23 0 512C0 794.77 229.23 1024 512 1024Z" fill="#BA6561"/>
<path d="M665.93 391.212C666.647 392.078 667.039 393.167 667.039 394.292C667.039 395.416 666.647 396.506 665.93 397.372C665.343 397.629 664.71 397.762 664.07 397.762C663.429 397.762 662.796 397.629 662.21 397.372L658.48 392.002L649.56 389.702C648.08 388.155 648.08 386.102 649.56 383.542C650.179 382.576 651.089 381.831 652.158 381.415C653.227 380.998 654.4 380.93 655.51 381.222C659.776 383.605 663.355 387.05 665.9 391.222L665.93 391.212ZM774.44 496.002C774.884 497.236 775.137 498.531 775.19 499.842L771.47 505.232V496.772C772.383 496.28 773.402 496.015 774.44 496.002ZM644.37 381.212L648.07 387.372C646.07 390.965 644.086 393.278 642.12 394.312L639.9 397.382C638.938 394.888 638.195 392.315 637.68 389.692C637.39 389.672 637.108 389.594 636.85 389.462C636.592 389.329 636.364 389.145 636.18 388.922L633.18 391.992L619.82 388.922C617.82 386.342 618.31 383.522 621.29 380.462C622.536 379.002 624.224 377.986 626.097 377.567C627.971 377.149 629.93 377.351 631.68 378.142L644.37 381.212ZM616.87 397.402L613.15 395.082L616.15 393.532L616.88 397.402H616.87ZM557.39 358.102L552.94 363.492L548.47 358.102L544.75 357.332L556.64 355.002L557.39 358.102ZM789.3 473.652C791.3 475.198 791.55 479.048 790.05 485.202L785.6 498.302L781.88 502.922L781.13 493.692C781.161 491.869 780.915 490.051 780.4 488.302C780.397 486.73 780.137 485.169 779.63 483.682L770 488.272C770.535 489.49 770.791 490.812 770.75 492.142C771.034 493.263 771.544 494.315 772.25 495.232L761.86 496.002L762.59 499.072L764.81 501.392L761.11 509.852C760.61 514.478 759.37 517.055 757.39 517.582L754.39 512.942L745.45 515.242C743.483 513.195 742.5 511.398 742.5 509.852L740.25 506.782L743.97 502.162C742.99 500.102 741.99 499.072 740.97 499.072L737.25 500.622L733.55 509.852C730.07 509.852 727.84 510.368 726.86 511.402L731.31 517.562L746.93 526.002L747.68 531.412C749.349 531.764 750.893 532.558 752.15 533.712C753.212 534.401 754.216 535.177 755.15 536.032C754.563 537.286 754.062 538.579 753.65 539.902C752.93 541.165 751.896 542.223 750.65 542.972L744 547.602L744.75 553.762C740.678 555.389 737.098 558.046 734.36 561.472L732.11 569.932C726.663 569.932 723.2 570.448 721.72 571.482L722.45 583.062L720.23 582.292C718.23 579.198 716.246 578.425 714.28 579.972L717.28 589.972C715.996 589.928 714.721 590.192 713.56 590.742L712 592.282L715 597.672C715.405 599.189 715.649 600.744 715.73 602.312C713.236 604.635 710.149 606.224 706.81 606.902C704.343 607.435 702.36 609.238 700.86 612.312L701.61 621.542C700.13 625.148 698.89 627.462 697.89 628.482C692.943 628.482 689.23 628.999 686.75 630.032L682.28 638.492L678.58 636.972C676.58 636.458 675.09 636.458 674.11 636.972L671.11 643.132C666.65 643.132 663.426 644.155 661.44 646.202L655.49 651.612L656.99 644.672C658.47 640.565 657.72 638.252 654.74 637.732L651.74 640.032L651.01 643.902L643.57 648.522L642.84 656.982H628.76L625.76 662.392C624.76 665.472 622.28 667.785 618.32 669.332C614.36 670.878 607.423 671.645 597.51 671.632C587.603 671.632 581.41 672.148 578.93 673.182C576.45 673.182 574.22 674.472 572.24 677.052C571.057 679.308 569.253 681.179 567.04 682.442L555.15 686.282L551.43 693.222L546.23 697.092C543.75 698.625 539.786 699.392 534.34 699.392L526.9 703.262L515.76 707.852L507.57 707.102C504.346 705.496 500.78 704.699 497.18 704.782H483.8L479.33 701.692L470.41 703.242L466 709.372L459.31 704.752L454.11 699.362L442.22 698.592L437.75 694.722L444.44 686.262L453.36 673.932V665.472L463.75 653.892V640.792C463.665 637.07 464.435 633.379 466 630.002L474.17 632.322C476.17 630.262 477.17 628.715 477.17 627.682C473.939 624.798 471.181 621.423 469 617.682L461.56 606.902L452.64 595.352L446.69 584.552L440 573.772L434.8 560.672L423.6 548.372L382.71 488.292L375.27 475.192L367.85 460.542L361.9 456.702C357.416 451.031 353.663 444.819 350.73 438.212L348.51 429.002L341.82 425.932L318.82 430.552C312.758 430.642 306.747 431.671 301 433.602L285.39 439.762L266.78 442.062L256.39 445.932C251.93 446.965 248.466 446.448 246 444.382L240.78 438.222L232.61 441.312L225.86 439.002C225.86 433.862 225.37 430.775 224.39 429.742L217.7 420.512C215.631 418.961 213.386 417.661 211.01 416.642L211.74 412.802H219.18C218.665 411.052 218.419 409.235 218.45 407.412V403.542L225.87 406.632C228.35 405.098 229.84 403.808 230.34 402.762L233.34 396.622L239.29 397.392L243.74 384.292L243.01 377.352L246.73 379.652L250.43 383.522C252.91 382.488 254.4 381.458 254.9 380.432L261.59 371.972L268.26 372.742L266 367.362L261.55 361.952L254.86 359.652C257.826 355.025 264.27 351.692 274.19 349.652L297.97 347.352L306.14 341.962L325.47 338.092L355.2 336.542L365.59 334.242C369.374 332.713 373.55 332.443 377.5 333.472L389.39 332.702C397.316 330.655 403.013 330.138 406.48 331.152L416.15 331.922L429.54 332.692L449.6 336.562L467.44 338.082L480.08 332.692C483.06 332.692 486.283 334.745 489.75 338.852L497.19 344.242H512.8L518 350.402L517.27 354.272L521.72 366.602L524.72 365.052L531.41 357.342L538.83 368.892L529.91 365.822C526.443 365.822 524.46 368.385 523.96 373.512L531.4 375.062L534.4 378.932L538.85 377.382C541.33 376.348 543.81 376.865 546.29 378.932C549.256 380.465 551.24 382.262 552.24 384.322L556.69 390.482H566.36C566.237 389.398 566.495 388.306 567.09 387.392C567.475 386.556 567.98 385.781 568.59 385.092L570.09 392.782H573.09L575.31 390.482L577.56 394.352L579.78 388.162C586.226 388.162 589.94 387.645 590.92 386.612C590.94 385.906 590.821 385.204 590.568 384.545C590.316 383.886 589.936 383.283 589.45 382.772L586.45 378.902C586.45 376.342 588.433 375.318 592.4 375.832L602.79 378.922L610.23 378.152L614.68 382.022L616.18 385.092C611.72 384.058 608.74 384.315 607.24 385.862C606.273 386.875 606.03 388.672 606.51 391.252L611.71 395.842C611.71 399.448 613.45 403.308 616.93 407.422L619.93 404.352L620.66 398.192L623.66 402.032H636.28C638.76 402.032 640.743 404.852 642.23 410.492L644.48 418.222L647.48 420.522L651.2 416.652L663 420.502L665.22 416.632L668.94 415.112C670.433 414.092 671.699 412.774 672.66 411.242V407.402L671.16 403.532L681.55 406.622C683.005 405.268 684.258 403.712 685.27 402.002C684.29 399.422 683.29 398.132 682.27 398.132L674.85 396.612V392.742L677.07 387.352L679.29 382.732C681.77 384.265 683.26 385.555 683.76 386.602L687.48 391.972L692.68 391.222L697.88 390.452L716.49 406.622L721.69 405.852L726.89 412.792L731.36 415.112C729.86 417.158 729.86 419.462 731.36 422.022L736.56 419.722H741.76L746.23 427.432L750.68 435.122C754.646 435.122 757.626 435.638 759.62 436.672L762.57 450.542L770.76 455.162L777.43 457.482C777.537 459.633 777.027 461.771 775.96 463.642L777.43 471.352L779.68 475.942L778.93 481.352L781.93 479.802C783.93 477.222 785.42 475.682 786.4 475.182L789.4 473.632L789.3 473.652ZM602 359.672C603.48 361.205 603.48 363.508 602 366.582C601.5 367.615 600.01 368.388 597.53 368.902C596.05 367.355 596.05 365.042 597.53 361.962C598.03 360.935 599.52 360.172 602 359.672ZM754.4 502.942C755.88 504.488 755.88 506.542 754.4 509.102L750.68 510.652L749.95 505.262C749.828 504.185 750.086 503.099 750.68 502.192C751.68 501.678 752.92 501.935 754.4 502.962V502.942ZM723.18 465.212C724.16 466.225 724.65 468.788 724.65 472.902C722.838 473.912 720.708 474.187 718.7 473.672C716.233 472.138 715.743 469.825 717.23 466.732C718.216 464.158 720.2 463.652 723.18 465.212ZM512.83 362.742L508.36 371.202L510.58 365.062L512.83 362.742ZM615.39 660.102L612.39 655.482L615.39 653.162C617.87 653.675 618.87 655.472 618.39 658.552L615.39 660.102ZM739.54 545.302C736.56 543.255 734.576 541.208 733.59 539.162L738.04 542.232L739.54 545.322V545.302ZM442.18 682.432L445.88 678.592L449.6 676.272L442.18 682.432ZM761.77 482.932L759.55 487.522L758.82 489.862L758.07 484.452L761.77 482.932ZM712.71 435.932L715 439.002L712 439.772L709 437.452L712.71 435.932ZM719.4 568.402L720.9 570.702L718.65 572.252L719.4 568.382V568.402ZM445.15 699.372L444.4 703.242L445.13 699.372H445.15ZM670.4 398.152L671.85 400.472L668.15 398.922L670.37 398.152H670.4ZM549.22 607.682L548.47 610.772L549.2 607.702L549.22 607.682ZM720.93 451.322L720.18 454.392L720.91 451.322H720.93ZM251.89 390.462L251.14 394.302L251.87 390.432L251.89 390.462ZM770 478.262C769.516 479.221 769.259 480.278 769.25 481.352C769.127 480.268 769.385 479.176 769.98 478.262H770ZM549.25 383.522L548.5 386.592L549.23 383.522H549.25ZM538.86 382.752L537.36 384.302L538.83 382.752H538.86ZM767 476.002C767.141 472.529 766.365 469.08 764.75 466.002C763.65 463.284 761.857 460.902 759.55 459.092L758.82 469.092L764.02 471.412C764.507 472.646 764.507 474.018 764.02 475.252L767 476.002ZM738.73 492.172L735.03 491.402L730.58 484.462L732.05 478.302L725.36 482.942L729.08 487.532L729.81 489.872L720.92 493.712L726.87 494.482C727.73 495.416 728.745 496.194 729.87 496.782C730.831 497.17 731.84 497.429 732.87 497.552L738.82 492.162L738.73 492.172ZM723.89 478.302L720.89 476.002L715.67 474.452L713.45 470.582L710.45 473.672L708.27 479.002L714.22 481.322C717.186 481.322 719.416 482.088 720.91 483.622L723.89 478.302ZM593.82 394.302L590.82 392.752L586.37 390.452C584.37 390.452 583.37 390.958 583.37 391.972L584.1 396.612L589.32 399.682L593.82 394.302ZM683 558.402L684.5 549.142C684.5 540.922 681.52 532.188 675.56 522.942C670.955 514.086 664.334 506.437 656.23 500.612C649.783 494.438 640.873 489.042 629.5 484.422L599.77 471.352L588.6 464.412L572.24 458.252L555.15 452.862L527.65 446.702L518.71 445.152C514.263 445.152 510.8 445.668 508.32 446.702C506.32 447.202 505.58 448.998 506.1 452.092L515 469.802C519.46 478.022 523.673 483.668 527.64 486.742L534.33 491.362V496.002L541.75 505.232L542.48 511.392C544.48 512.938 545.97 513.712 546.95 513.712C549.43 515.245 552.653 519.095 556.62 525.262L564.81 535.262L577.43 553.752L588.6 573.752L593.8 589.142L592.33 599.142L595.33 603.762L592.33 608.382C591.987 608.663 591.71 609.017 591.52 609.418C591.33 609.82 591.232 610.258 591.232 610.702C591.232 611.146 591.33 611.584 591.52 611.985C591.71 612.386 591.987 612.74 592.33 613.022L597.53 611.472L606.45 607.602C608.93 607.602 613.143 606.072 619.09 603.012L635.45 595.282L658.45 586.052C667.883 582.018 674.58 577.935 678.54 573.802L681.54 566.092C681.54 562.498 682.04 559.928 683.04 558.382L683 558.402Z" fill="white"/>
</g>
<defs>
<clipPath id="clip0_3_530">
<rect width="1024" height="1024" fill="white"/>
</clipPath>
</defs>
</svg>
